X: 3
T:Vandalls of Hammerwich, Lichfield
M:4/4
L:1/4
A:Lichfield
P:(AB)4A2B
K:G
P:A
GE|DGBG |DGBG |d2d>d|d2d2 |
DGBG |DGBG |dcAF |G2   |
P:B
|:Bc|d2d>d|d3d  |egfe |edd>e|
dcc>c|cBB>B|dcAF |G2  :|
